docs/.gitbook/assets/icon-fingerprint-16@dark.svg

<svg width="32" height="32" viewBox="0 0 16 16" fill="none" xmlns="http://www.w3.org/2000/svg">
<rect x="0" y="0" width="16" height="16" fill="#181c1f"/>
<path fill-rule="evenodd" clip-rule="evenodd" d="M7 1.75C7 1.33579 7.33579 1 7.75 1H8C11.866 1 15 4.13401 15 8V8.25C15 8.66421 14.6642 9 14.25 9C13.8358 9 13.5 8.66421 13.5 8.25V8C13.5 4.96243 11.0376 2.5 8 2.5H7.75C7.33579 2.5 7 2.16421 7 1.75ZM4.83857 2.53515C5.0953 2.86021 5.03991 3.33184 4.71485 3.58857L4.4729 3.77966C3.26575 4.78974 2.5 6.3051 2.5 8C2.5 8.41421 2.16421 8.75 1.75 8.75C1.33579 8.75 1 8.41421 1 8C1 5.8379 1.98113 3.90428 3.5197 2.62141L3.53515 2.60888L3.78515 2.41143C4.11021 2.1547 4.58184 2.21009 4.83857 2.53515ZM7 4.75C7 4.33579 7.33579 4 7.75 4H8C10.2091 4 12 5.79086 12 8V10.25C12 10.6642 11.6642 11 11.25 11C10.8358 11 10.5 10.6642 10.5 10.25V8C10.5 6.61929 9.38071 5.5 8 5.5H7.75C7.33579 5.5 7 5.16421 7 4.75ZM4.5 6.25C4.5 5.83579 4.83579 5.5 5.25 5.5H5.26C5.67421 5.5 6.01 5.83579 6.01 6.25C6.01 6.66421 5.67421 7 5.26 7H5.25C4.83579 7 4.5 6.66421 4.5 6.25ZM4.75 8C5.16421 8 5.5 8.33579 5.5 8.75V9.25C5.5 10.7688 4.26878 12 2.75 12H1.75C1.33579 12 1 11.6642 1 11.25C1 10.8358 1.33579 10.5 1.75 10.5H2.75C3.44036 10.5 4 9.94036 4 9.25V8.75C4 8.33579 4.33579 8 4.75 8ZM8 8C8.41421 8 8.75 8.33579 8.75 8.75V10.25C8.75 12.8734 6.62335 15 4 15H3.75C3.33579 15 3 14.6642 3 14.25C3 13.8358 3.33579 13.5 3.75 13.5H4C5.79493 13.5 7.25 12.0449 7.25 10.25V8.75C7.25 8.33579 7.58579 8 8 8ZM14.25 11C14.6642 11 15 11.3358 15 11.75V14.25C15 14.6642 14.6642 15 14.25 15C13.8358 15 13.5 14.6642 13.5 14.25V11.75C13.5 11.3358 13.8358 11 14.25 11ZM11.25 12C11.6642 12 12 12.3358 12 12.75V14.25C12 14.6642 11.6642 15 11.25 15C10.8358 15 10.5 14.6642 10.5 14.25V12.75C10.5 12.3358 10.8358 12 11.25 12Z" fill="#fff"/>
</svg>

<svg xmlns="http://www.w3.org/2000/svg" width="32" height="32" fill="none" viewBox="0 0 16 16"><path fill="#181c1f" d="M0 0h16v16H0z"/><path fill="#fff" fill-rule="evenodd" d="M7 1.75A.75.75 0 0 1 7.75 1H8a7 7 0 0 1 7 7v.25a.75.75 0 0 1-1.5 0V8A5.5 5.5 0 0 0 8 2.5h-.25A.75.75 0 0 1 7 1.75m-2.161.785a.75.75 0 0 1-.124 1.054l-.242.19A5.49 5.49 0 0 0 2.5 8 .75.75 0 0 1 1 8c0-2.162.981-4.096 2.52-5.379l.015-.012.25-.198a.75.75 0 0 1 1.054.124M7 4.75A.75.75 0 0 1 7.75 4H8a4 4 0 0 1 4 4v2.25a.75.75 0 0 1-1.5 0V8A2.5 2.5 0 0 0 8 5.5h-.25A.75.75 0 0 1 7 4.75m-2.5 1.5a.75.75 0 0 1 .75-.75h.01a.75.75 0 0 1 0 1.5h-.01a.75.75 0 0 1-.75-.75M4.75 8a.75.75 0 0 1 .75.75v.5A2.75 2.75 0 0 1 2.75 12h-1a.75.75 0 0 1 0-1.5h1C3.44 10.5 4 9.94 4 9.25v-.5A.75.75 0 0 1 4.75 8M8 8a.75.75 0 0 1 .75.75v1.5A4.75 4.75 0 0 1 4 15h-.25a.75.75 0 0 1 0-1.5H4a3.25 3.25 0 0 0 3.25-3.25v-1.5A.75.75 0 0 1 8 8m6.25 3a.75.75 0 0 1 .75.75v2.5a.75.75 0 0 1-1.5 0v-2.5a.75.75 0 0 1 .75-.75m-3 1a.75.75 0 0 1 .75.75v1.5a.75.75 0 0 1-1.5 0v-1.5a.75.75 0 0 1 .75-.75" clip-rule="evenodd"/></svg>
